src/asset/120/email_success.svg

<svg width="120" height="120" viewBox="0 0 120 120" fill="none" xmlns="http://www.w3.org/2000/svg">
<path d="M28 32C25.7909 32 24 33.7909 24 36V38.5279C24 39.2854 24.428 39.9779 25.1056 40.3167L59.1056 57.3167C59.6686 57.5982 60.3314 57.5982 60.8944 57.3167L94.8944 40.3167C95.572 39.978 96 39.2854 96 38.5279V36C96 33.7909 94.2091 32 92 32H28Z" fill="url(#paint0_linear)"/>
<path d="M96 47.4721C96 45.9854 94.4354 45.0184 93.1056 45.6833L60.8944 61.7889C60.3314 62.0704 59.6686 62.0704 59.1056 61.7889L26.8944 45.6833C25.5646 45.0184 24 45.9854 24 47.4721V76C24 78.2091 25.7909 80 28 80H92C94.2091 80 96 78.2091 96 76V47.4721Z" fill="url(#paint1_linear)"/>
<circle cx="88" cy="72" r="16" fill="url(#paint2_linear)"/>
<path fill-rule="evenodd" clip-rule="evenodd" d="M97.4142 66.5858C98.1953 67.3668 98.1953 68.6332 97.4142 69.4142L87.4142 79.4142C86.6332 80.1953 85.3668 80.1953 84.5858 79.4142L78.5858 73.4142C77.8047 72.6332 77.8047 71.3668 78.5858 70.5858C79.3668 69.8047 80.6332 69.8047 81.4142 70.5858L86 75.1716L94.5858 66.5858C95.3668 65.8047 96.6332 65.8047 97.4142 66.5858Z" fill="white"/>
<defs>
<linearGradient id="paint0_linear" x1="24" y1="80" x2="68.3077" y2="13.5385" gradientUnits="userSpaceOnUse">
<stop stop-color="#FFC75D"/>
<stop offset="1" stop-color="#FFA363"/>
</linearGradient>
<linearGradient id="paint1_linear" x1="24" y1="80" x2="68.3077" y2="13.5385" gradientUnits="userSpaceOnUse">
<stop stop-color="#FFC75D"/>
<stop offset="1" stop-color="#FFA363"/>
</linearGradient>
<linearGradient id="paint2_linear" x1="105.048" y1="95.4286" x2="83.7273" y2="101.276" gradientUnits="userSpaceOnUse">
<stop stop-color="#658BF5"/>
<stop offset="1" stop-color="#8DB0FF"/>
</linearGradient>
</defs>
</svg>

<svg width="120" height="120" fill="none" xmlns="http://www.w3.org/2000/svg"><path d="M28 32a4 4 0 00-4 4v2.528a2 2 0 001.106 1.789l34 17a2 2 0 001.788 0l34-17A2 2 0 0096 38.527V36a4 4 0 00-4-4H28z" fill="url(#paint0_linear)"/><path d="M96 47.472a2 2 0 00-2.894-1.789L60.894 61.79a2 2 0 01-1.788 0L26.894 45.683A2 2 0 0024 47.473V76a4 4 0 004 4h64a4 4 0 004-4V47.472z" fill="url(#paint1_linear)"/><circle cx="88" cy="72" r="16" fill="url(#paint2_linear)"/><path fill-rule="evenodd" clip-rule="evenodd" d="M97.414 66.586a2 2 0 010 2.828l-10 10a2 2 0 01-2.828 0l-6-6a2 2 0 112.828-2.828L86 75.172l8.586-8.586a2 2 0 012.828 0z" fill="#fff"/><defs><linearGradient id="paint0_linear" x1="24" y1="80" x2="68.308" y2="13.539" gradientUnits="userSpaceOnUse"><stop stop-color="#FFC75D"/><stop offset="1" stop-color="#FFA363"/></linearGradient><linearGradient id="paint1_linear" x1="24" y1="80" x2="68.308" y2="13.539" gradientUnits="userSpaceOnUse"><stop stop-color="#FFC75D"/><stop offset="1" stop-color="#FFA363"/></linearGradient><linearGradient id="paint2_linear" x1="105.048" y1="95.429" x2="83.727" y2="101.276" gradientUnits="userSpaceOnUse"><stop stop-color="#658BF5"/><stop offset="1" stop-color="#8DB0FF"/></linearGradient></defs></svg>
